X:1
T:Jingle Bells Alto
T:Jingle Bells Alto
L:1/8
M:2/4
K:G
V:1 treble nm="Piano" snm="Pno."
V:1
 G G G2 | G G G2 | G F D3/2 F/ | G2 z2 | G G G3/2 G/ | G G G G/ G/ | G G G G | F3 z | G G G2 | %9
 G G G2 | G F D3/2 F/ | G2 z2 | G G G G | G G G G/ G/ | F F F F | G3 D | D B A G | D3 D/ D/ | %18
 D B A G | E3 E | E c B A | F3 F | F F F F | G3 G | D B A G | D3 D | D B A G | E3 E | C E G E | %29
 G G G G | F F F F | G2 F2!D.C.! |] %32

